modules/linearicons/icons/diamond.svg

<?xml version="1.0" encoding="utf-8"?>
<!-- Generated by IcoMoon.io -->
<!DOCTYPE svg PUBLIC "-//W3C//DTD SVG 1.1//EN" "http://www.w3.org/Graphics/SVG/1.1/DTD/svg11.dtd">
<svg version="1.1" xmlns="http://www.w3.org/2000/svg" xmlns:xlink="http://www.w3.org/1999/xlink" width="20" height="20" viewBox="0 0 20 20">
<path fill="#000000" d="M18.9 7.2l-3-4c-0.077-0.103-0.191-0.172-0.318-0.193l-6-1c-0.054-0.009-0.11-0.009-0.164 0l-6 1c-0.127 0.021-0.241 0.090-0.318 0.193l-3 4c-0.143 0.191-0.131 0.457 0.028 0.634l9 10c0.095 0.105 0.23 0.166 0.372 0.166s0.277-0.060 0.372-0.166l9-10c0.16-0.178 0.172-0.443 0.028-0.634zM12.786 7l-3.286 9.037-3.286-9.037h6.572zM6.707 6l2.793-2.793 2.793 2.793h-5.586zM10.957 3.25l3.698 0.616-1.233 1.849-2.466-2.465zM5.578 5.715l-1.233-1.849 3.698-0.616-2.465 2.465zM4.67 6.156l-2.985 0.597 1.791-2.388 1.194 1.791zM5.177 7.075l2.974 8.179-6.692-7.436 3.718-0.744zM13.823 7.075l3.718 0.744-6.692 7.436 2.974-8.179zM14.33 6.156l1.194-1.791 1.791 2.388-2.985-0.597z"></path>
</svg>

<svg xmlns="http://www.w3.org/2000/svg" width="20" height="20" viewBox="0 0 20 20"><path d="M18.9 7.2l-3-4a.498.498 0 0 0-.318-.193l-6-1a.501.501 0 0 0-.164 0l-6 1A.498.498 0 0 0 3.1 3.2l-3 4a.5.5 0 0 0 .028.634l9 10a.502.502 0 0 0 .744 0l9-10A.498.498 0 0 0 18.9 7.2zM12.786 7L9.5 16.037 6.214 7h6.572zM6.707 6L9.5 3.207 12.293 6H6.707zm4.25-2.75l3.698.616-1.233 1.849-2.466-2.465zM5.578 5.715L4.345 3.866l3.698-.616-2.465 2.465zm-.908.441l-2.985.597 1.791-2.388L4.67 6.156zm.507.919l2.974 8.179-6.692-7.436 3.718-.744zm8.646 0l3.718.744-6.692 7.436 2.974-8.179zm.507-.919l1.194-1.791 1.791 2.388-2.985-.597z"/></svg>
